; generated by PrusaSlicer 2.3.3+x64 on 2021-09-08 at 03:58:52 UTC


;
;

;
;
; 

; external perimeters extrusion width = 0.45mm
; perimeters extrusion width = 0.45mm
; infill extrusion width = 0.45mm
; solid infill extrusion width = 0.45mm
; top infill extrusion width = 0.40mm
; support material extrusion width = 0.35mm
; first layer extrusion width = 0.42mm

; external perimeters extrusion width = 0.45mm
; perimeters extrusion width = 0.45mm
; infill extrusion width = 0.45mm
; solid infill extrusion width = 0.45mm
; top infill extrusion width = 0.40mm
; support material extrusion width = 0.35mm
; first layer extrusion width = 0.42mm

M73 P0 R93
M201 X1250 Y1250 Z400 E5000 ; sets maximum accelerations, mm/sec^2
M203 X180 Y180 Z12 E80 ; sets maximum feedrates, mm/sec
M204 P1250 R1250 T1250 ; sets acceleration (P, T) and retract acceleration (R), mm/sec^2
M205 X8.00 Y8.00 Z2.00 E10.00 ; sets the jerk limits, mm/sec
M205 S0 T0 ; sets the minimum extruding and travel feed rate, mm/sec
M107
;TYPE:Custom
G90 ; use absolute coordinates
M83 ; extruder relative mode
M104 S170 ; set extruder temp for bed leveling
M140 S60 ; set bed temp
M109 R170 ; wait for bed leveling temp
M190 S60 ; wait for bed temp
G28 ; home all without mesh bed level
G29 ; mesh bed leveling 
M104 S215 ; set extruder temp
G92 E0.0
G1 Y-2.0 X179 F2400
G1 Z3 F720
M109 S215 ; wait for extruder temp

; intro line
G1 X170 F1000
G1 Z0.2 F720
G1 X110.0 E8.0 F900
G1 X40.0 E10.0 F700
G92 E0.0

M221 S95 ; set flow
G21 ; set units to millimeters
G90 ; use absolute coordinates
M83 ; use relative distances for extrusion
M900 K0.2 ; Filament gcode LA 1.5
; ; Filament gcode LA 1.0
;LAYER_CHANGE
;Z:0.2
;HEIGHT:0.2
;BEFORE_LAYER_CHANGE
G92 E0.0
;0.2


G1 E-3.20000 F4200.000
G1 Z0.200 F9000.000
;AFTER_LAYER_CHANGE
;0.2
G1 Z0.400
G1 X53.827 Y62.744
G1 Z0.200
G1 E3.20000 F2400.000
M204 S800
;TYPE:Skirt
;WIDTH:0.42
G1 F1200.000
G1 X54.561 Y62.623 E0.02331
G1 X125.427 Y62.623 E2.22196
G1 X126.322 Y62.799 E0.02860
G1 X127.085 Y63.300 E0.02860
G1 X127.601 Y64.048 E0.02849
G1 X127.799 Y64.938 E0.02860
G1 X127.800 Y115.046 E1.57109
G1 X127.727 Y115.584 E0.01704
G1 X127.534 Y116.092 E0.01704
G1 X127.233 Y116.541 E0.01692
G1 X126.836 Y116.911 E0.01704
G1 X126.173 Y117.256 E0.02343
G1 X125.439 Y117.377 E0.02331
G1 X54.562 Y117.377 E2.22232
M73 P0 R92
G1 X54.015 Y117.310 E0.01728
G1 X53.498 Y117.118 E0.01728
G1 X53.042 Y116.815 E0.01716
G1 X52.666 Y116.413 E0.01728
G1 X52.322 Y115.753 E0.02331
G1 X52.200 Y115.020 E0.02331
G1 X52.200 Y64.977 E1.56906
G1 X52.268 Y64.434 E0.01716
G1 X52.461 Y63.918 E0.01728
G1 X52.764 Y63.462 E0.01716
G1 X53.164 Y63.089 E0.01716
G1 X53.774 Y62.772 E0.02155
M204 S1250
; printing object v01_Body.stl id:0 copy 0
G1 E-2.24000 F4200.000
;WIPE_START
G1 F7200.000
G1 X54.561 Y62.623 E-0.44376
G1 X55.406 Y62.623 E-0.46824
;WIPE_END
G1 E-0.04800 F4200.000
G1 Z0.400 F9000.000
G1 X56.446 Y65.787
G1 Z0.200
G1 E3.20000 F2400.000
M204 S800
;TYPE:Perimeter
G1 F1200.000
G1 X123.554 Y65.787 E2.10412
G1 X123.554 Y114.213 E1.51836
G1 X56.446 Y114.213 E2.10412
G1 X56.446 Y65.847 E1.51648
M204 S1250
G1 X56.069 Y65.410 F9000.000
M204 S800
;TYPE:External perimeter
G1 F1200.000
G1 X123.931 Y65.410 E2.12777
G1 X123.931 Y114.590 E1.54200
G1 X56.069 Y114.590 E2.12777
G1 X56.069 Y65.470 E1.54012
M204 S1250
G1 X56.460 Y65.493 F9000.000
G1 E-2.24000 F4200.000
;WIPE_START
G1 F7200.000
G1 X57.715 Y65.469 E-0.91200
;WIPE_END
G1 E-0.04800 F4200.000
G1 Z0.400 F9000.000
G1 X60.328 Y66.085
G1 Z0.200
G1 E3.20000 F2400.000
M204 S800
;TYPE:Internal infill
G1 F1200.000
G1 X108.158 Y113.915 E2.12087
M73 P1 R92
G1 X108.878 Y113.915 E0.02258
G1 X121.694 Y66.085 E1.55259
G1 X120.776 Y66.085 E0.02879
G1 X123.256 Y68.565 E0.10997
G1 X123.256 Y68.446 E0.00373
G1 X56.744 Y86.268 E2.15901
G1 X56.744 Y85.529 E0.02317
G1 X85.130 Y113.915 E1.25870
G1 X85.699 Y113.915 E0.01784
G1 X98.515 Y66.085 E1.55259
G1 X97.748 Y66.085 E0.02405
G1 X123.256 Y91.593 E1.13106
G1 X123.256 Y91.625 E0.00101
G1 X56.744 Y109.447 E2.15901
G1 X56.744 Y108.557 E0.02791
G1 X62.102 Y113.915 E0.23760
G1 X62.520 Y113.915 E0.01309
G1 X75.336 Y66.085 E1.55259
G1 X74.720 Y66.085 E0.01930
G1 X122.551 Y113.915 E2.12087
G1 X121.522 Y113.915 E0.03226
G1 X123.256 Y107.442 E0.21013
G1 X123.256 Y106.579 E0.02705
M204 S1250
G1 X123.256 Y105.782 F9000.000
M204 S800
G1 F1200.000
G1 X123.256 Y104.268 E0.04745
G1 X87.254 Y113.915 E1.16866
G1 X87.806 Y113.915 E0.01733
G1 X100.622 Y66.085 E1.55259
G1 X123.256 Y88.714 E1.00352
M73 P1 R91
G1 X123.256 Y89.518 E0.02520
G1 X56.744 Y107.340 E2.15901
G1 X56.744 Y105.882 E0.04572
M204 S1250
G1 X56.744 Y105.029 F9000.000
M204 S800
G1 F1200.000
G1 X56.744 Y104.015 E0.03179
G1 X66.907 Y66.085 E1.23123
G1 X66.085 Y66.085 E0.02578
G1 X113.915 Y113.915 E2.12087
G1 X113.093 Y113.915 E0.02578
G1 X123.256 Y75.985 E1.23123
G1 X123.256 Y74.971 E0.03179
M204 S1250
G1 X123.256 Y74.118 F9000.000
M204 S800
G1 F1200.000
G1 X123.256 Y72.660 E0.04572
G1 X56.744 Y90.482 E2.15901
G1 X56.744 Y91.286 E0.02520
G1 X79.378 Y113.915 E1.00352
G1 X92.194 Y66.085 E1.55259
G1 X92.747 Y66.085 E0.01733
G1 X56.744 Y75.732 E1.16866
G1 X56.744 Y74.218 E0.04745
M204 S1250
G1 X56.744 Y73.421 F9000.000
M204 S800
G1 F1200.000
G1 X56.744 Y72.558 E0.02705
G1 X58.478 Y66.085 E0.21013
G1 X57.449 Y66.085 E0.03226
G1 X105.280 Y113.915 E2.12087
G1 X104.664 Y113.915 E0.01930
G1 X117.480 Y66.085 E1.55259
M73 P2 R91
G1 X117.898 Y66.085 E0.01309
G1 X123.256 Y71.443 E0.23760
G1 X123.256 Y70.553 E0.02791
G1 X56.744 Y88.375 E2.15901
G1 X56.744 Y88.407 E0.00101
G1 X82.252 Y113.915 E1.13106
G1 X81.485 Y113.915 E0.02405
G1 X94.301 Y66.085 E1.55259
G1 X94.870 Y66.085 E0.01784
G1 X123.256 Y94.471 E1.25870
G1 X123.256 Y93.732 E0.02317
G1 X56.744 Y111.554 E2.15901
G1 X56.744 Y111.435 E0.00373
G1 X59.224 Y113.915 E0.10997
G1 X58.306 Y113.915 E0.02879
G1 X71.122 Y66.085 E1.55259
G1 X71.842 Y66.085 E0.02258
G1 X119.672 Y113.915 E2.12087
M204 S1250
G1 E-2.24000 F4200.000
;WIPE_START
G1 F7200.000
G1 X118.508 Y112.751 E-0.91200
;WIPE_END
G1 E-0.04800 F4200.000
G1 Z0.400 F9000.000
G1 X116.590 Y113.915
G1 Z0.200
G1 E3.20000 F2400.000
M204 S800
G1 F1200.000
G1 X115.200 Y113.915 E0.04359
G1 X123.256 Y83.849 E0.97595
G1 X123.256 Y84.566 E0.02246
M204 S1250
G1 X123.256 Y86.039 F9000.000
M204 S800
G1 F1200.000
G1 X123.256 Y87.411 E0.04300
G1 X56.744 Y105.233 E2.15901
G1 X56.744 Y105.678 E0.01397
G1 X64.981 Y113.915 E0.36524
G1 X66.734 Y113.915 E0.05498
G1 X79.550 Y66.085 E1.55259
G1 X80.477 Y66.085 E0.02906
G1 X123.256 Y108.864 E1.89688
M73 P2 R90
G1 X123.256 Y110.590 E0.05412
G1 X110.846 Y113.915 E0.40284
G1 X109.082 Y113.915 E0.05531
M204 S1250
G1 E-2.24000 F4200.000
;WIPE_START
G1 F7200.000
G1 X110.728 Y113.915 E-0.91200
;WIPE_END
G1 E-0.04800 F4200.000
G1 Z0.400 F9000.000
G1 X96.235 Y113.915
G1 Z0.200
G1 E3.20000 F2400.000
M204 S800
G1 F1200.000
G1 X109.051 Y66.085 E1.55259
G1 X109.262 Y66.085 E0.00661
G1 X123.256 Y80.079 E0.62051
G1 X123.256 Y81.089 E0.03168
G1 X56.744 Y98.911 E2.15901
G1 X56.744 Y99.921 E0.03168
G1 X70.738 Y113.915 E0.62051
G1 X70.949 Y113.915 E0.00661
G1 X83.765 Y66.085 E1.55259
M204 S1250
G1 E-2.24000 F4200.000
;WIPE_START
G1 F7200.000
G1 X83.339 Y67.675 E-0.91200
;WIPE_END
G1 E-0.04800 F4200.000
G1 Z0.400 F9000.000
G1 X70.918 Y66.085
G1 Z0.200
G1 E3.20000 F2400.000
M204 S800
G1 F1200.000
G1 X69.154 Y66.085 E0.05531
G1 X56.744 Y69.410 E0.40284
G1 X56.744 Y71.136 E0.05412
G1 X99.523 Y113.915 E1.89688
G1 X100.450 Y113.915 E0.02906
G1 X113.266 Y66.085 E1.55259
G1 X115.019 Y66.085 E0.05498
G1 X123.256 Y74.322 E0.36524
G1 X123.256 Y74.767 E0.01397
G1 X56.744 Y92.589 E2.15901
M73 P3 R90
G1 X56.744 Y93.961 E0.04300
M204 S1250
G1 X56.744 Y95.434 F9000.000
M204 S800
G1 F1200.000
G1 X56.744 Y96.151 E0.02246
G1 X64.800 Y66.085 E0.97595
G1 X63.410 Y66.085 E0.04359
M204 S1250
G1 E-2.24000 F4200.000
;WIPE_START
G1 F7200.000
G1 X64.800 Y66.085 E-0.77035
G1 X64.734 Y66.332 E-0.14165
;WIPE_END
G1 E-0.04800 F4200.000
G1 Z0.400 F9000.000
G1 X56.744 Y71.517
G1 Z0.200
G1 E3.20000 F2400.000
M204 S800
G1 F1200.000
G1 X77.018 Y66.085 E0.65811
G1 X76.302 Y66.085 E0.02246
M204 S1250
G1 E-2.24000 F4200.000
;WIPE_START
G1 F7200.000
G1 X77.018 Y66.085 E-0.39703
G1 X76.121 Y66.325 E-0.51497
;WIPE_END
G1 E-0.04800 F4200.000
G1 Z0.400 F9000.000
G1 X74.517 Y66.085
G1 Z0.200
G1 E3.20000 F2400.000
M204 S800
G1 F1200.000
G1 X73.229 Y66.085 E0.04038
G1 X60.413 Y113.915 E1.55259
G1 X61.899 Y113.915 E0.04659
M204 S1250
G1 X62.724 Y113.915 F9000.000
M204 S800
G1 F1200.000
G1 X63.661 Y113.915 E0.02939
G1 X123.256 Y97.947 E1.93448
G1 X123.256 Y97.350 E0.01872
G1 X91.991 Y66.085 E1.38634
M204 S1250
G1 E-2.24000 F4200.000
;WIPE_START
G1 F7200.000
G1 X93.155 Y67.249 E-0.91200
;WIPE_END
G1 E-0.04800 F4200.000
G1 Z0.400 F9000.000
G1 X95.073 Y66.085
G1 Z0.200
G1 E3.20000 F2400.000
M204 S800
G1 F1200.000
G1 X96.408 Y66.085 E0.04185
G1 X83.592 Y113.915 E1.55259
G1 X84.927 Y113.915 E0.04185
M204 S1250
G1 E-2.24000 F4200.000
;WIPE_START
G1 F7200.000
G1 X83.592 Y113.915 E-0.73966
G1 X83.672 Y113.615 E-0.17234
;WIPE_END
G1 E-0.04800 F4200.000
G1 Z0.400 F9000.000
G1 X88.009 Y113.915
G1 Z0.200
G1 E3.20000 F2400.000
M204 S800
G1 F1200.000
G1 X56.744 Y82.650 E1.38634
G1 X56.744 Y82.053 E0.01872
G1 X116.339 Y66.085 E1.93448
G1 X117.276 Y66.085 E0.02939
M204 S1250
G1 X118.101 Y66.085 F9000.000
M204 S800
G1 F1200.000
G1 X119.587 Y66.085 E0.04659
G1 X106.771 Y113.915 E1.55259
G1 X105.483 Y113.915 E0.04038
M204 S1250
G1 E-2.24000 F4200.000
;WIPE_START
G1 F7200.000
G1 X106.771 Y113.915 E-0.71375
G1 X106.864 Y113.570 E-0.19825
;WIPE_END
G1 E-0.04800 F4200.000
G1 Z0.400 F9000.000
G1 X103.698 Y113.915
G1 Z0.200
G1 E3.20000 F2400.000
M204 S800
G1 F1200.000
G1 X102.982 Y113.915 E0.02246
G1 X123.256 Y108.483 E0.65811
M204 S1250
G1 E-2.24000 F4200.000
;WIPE_START
G1 F7200.000
G1 X121.666 Y108.909 E-0.91200
;WIPE_END
G1 E-0.04800 F4200.000
G1 Z0.400 F9000.000
G1 X123.256 Y92.430
G1 Z0.200
G1 E3.20000 F2400.000
M204 S800
G1 F1200.000
G1 X123.256 Y91.713 E0.02246
G1 X117.307 Y113.915 E0.72068
G1 X116.794 Y113.915 E0.01610
G1 X68.963 Y66.085 E2.12087
G1 X69.014 Y66.085 E0.00160
G1 X56.744 Y111.879 E1.48650
G1 X56.744 Y113.661 E0.05588
G1 X123.256 Y95.839 E2.15901
G1 X123.256 Y97.146 E0.04097
M204 S1250
G1 X123.256 Y98.150 F9000.000
M204 S800
G1 F1200.000
G1 X123.256 Y99.577 E0.04475
G1 X119.414 Y113.915 E0.46541
M73 P3 R89
G1 X118.710 Y113.915 E0.02208
G1 X123.256 Y112.697 E0.14756
G1 X123.256 Y111.742 E0.02994
G1 X77.599 Y66.085 E2.02452
G1 X77.443 Y66.085 E0.00488
G1 X64.627 Y113.915 E1.55259
M204 S1250
G1 E-2.24000 F4200.000
;WIPE_START
G1 F7200.000
G1 X65.053 Y112.325 E-0.91200
;WIPE_END
G1 E-0.04800 F4200.000
G1 Z0.400 F9000.000
G1 X56.744 Y103.125
G1 Z0.200
G1 E3.20000 F2400.000
M204 S800
G1 F1200.000
G1 X123.256 Y85.303 E2.15901
G1 X123.256 Y85.836 E0.01669
G1 X103.505 Y66.085 E0.87579
G1 X102.730 Y66.085 E0.02432
G1 X89.914 Y113.915 E1.55259
G1 X90.887 Y113.915 E0.03053
G1 X56.744 Y79.772 E1.51397
G1 X56.744 Y79.946 E0.00547
G1 X108.475 Y66.085 E1.67921
M73 P4 R89
G1 X107.758 Y66.085 E0.02246
M204 S1250
G1 E-2.24000 F4200.000
;WIPE_START
G1 F7200.000
G1 X108.475 Y66.085 E-0.39703
G1 X107.577 Y66.325 E-0.51497
;WIPE_END
G1 E-0.04800 F4200.000
G1 Z0.400 F9000.000
G1 X106.180 Y66.085
G1 Z0.200
G1 E3.20000 F2400.000
M204 S800
G1 F1200.000
G1 X104.837 Y66.085 E0.04212
G1 X92.021 Y113.915 E1.55259
G1 X93.562 Y113.915 E0.04833
M204 S1250
G1 X94.331 Y113.915 F9000.000
M204 S800
G1 F1200.000
G1 X95.118 Y113.915 E0.02465
G1 X123.256 Y106.375 E0.91338
G1 X123.256 Y105.985 E0.01224
G1 X83.356 Y66.085 E1.76925
G1 X81.658 Y66.085 E0.05324
G1 X68.842 Y113.915 E1.55259
G1 X67.859 Y113.915 E0.03080
G1 X56.744 Y102.800 E0.49288
M204 S1250
G1 X56.744 Y102.596 F9000.000
M204 S800
G1 F1200.000
G1 X56.744 Y101.018 E0.04948
G1 X123.256 Y83.196 E2.15901
G1 X123.256 Y82.957 E0.00749
G1 X106.384 Y66.085 E0.74815
G1 X106.944 Y66.085 E0.01757
G1 X94.128 Y113.915 E1.55259
G1 X93.766 Y113.915 E0.01136
G1 X56.744 Y76.893 E1.64161
G1 X56.744 Y77.839 E0.02965
G1 X100.611 Y66.085 E1.42393
G1 X99.894 Y66.085 E0.02246
M204 S1250
G1 E-2.24000 F4200.000
;WIPE_START
G1 F7200.000
G1 X100.611 Y66.085 E-0.39703
G1 X99.713 Y66.325 E-0.51497
;WIPE_END
G1 E-0.04800 F4200.000
G1 Z0.400 F9000.000
G1 X56.744 Y87.570
G1 Z0.200
G1 E3.20000 F2400.000
M204 S800
G1 F1200.000
G1 X56.744 Y88.287 E0.02246
G1 X62.693 Y66.085 E0.72068
G1 X63.206 Y66.085 E0.01610
G1 X111.037 Y113.915 E2.12087
G1 X110.986 Y113.915 E0.00160
G1 X123.256 Y68.121 E1.48650
G1 X123.256 Y66.339 E0.05588
G1 X56.744 Y84.161 E2.15901
G1 X56.744 Y82.854 E0.04097
M204 S1250
G1 X56.744 Y81.850 F9000.000
M204 S800
G1 F1200.000
G1 X56.744 Y80.423 E0.04475
G1 X60.586 Y66.085 E0.46541
G1 X61.290 Y66.085 E0.02208
G1 X56.744 Y67.303 E0.14756
G1 X56.744 Y68.258 E0.02994
G1 X102.401 Y113.915 E2.02452
G1 X102.557 Y113.915 E0.00488
G1 X115.373 Y66.085 E1.55259
M204 S1250
M73 P4 R88
G1 E-2.24000 F4200.000
;WIPE_START
G1 F7200.000
G1 X114.947 Y67.675 E-0.91200
;WIPE_END
G1 E-0.04800 F4200.000
G1 Z0.400 F9000.000
G1 X123.256 Y76.875
G1 Z0.200
G1 E3.20000 F2400.000
M204 S800
G1 F1200.000
G1 X56.744 Y94.697 E2.15901
G1 X56.744 Y94.164 E0.01669
G1 X76.495 Y113.915 E0.87579
G1 X77.270 Y113.915 E0.02432
G1 X90.086 Y66.085 E1.55259
G1 X89.113 Y66.085 E0.03053
G1 X123.256 Y100.228 E1.51397
G1 X123.256 Y100.054 E0.00547
G1 X71.525 Y113.915 E1.67921
G1 X72.242 Y113.915 E0.02246
M204 S1250
G1 E-2.24000 F4200.000
;WIPE_START
G1 F7200.000
G1 X71.525 Y113.915 E-0.39703
G1 X72.423 Y113.675 E-0.51497
;WIPE_END
G1 E-0.04800 F4200.000
G1 Z0.400 F9000.000
G1 X73.820 Y113.915
G1 Z0.200
G1 E3.20000 F2400.000
M204 S800
M73 P5 R88
G1 F1200.000
G1 X75.163 Y113.915 E0.04212
G1 X87.979 Y66.085 E1.55259
G1 X86.438 Y66.085 E0.04833
M204 S1250
G1 X85.669 Y66.085 F9000.000
M204 S800
G1 F1200.000
G1 X84.882 Y66.085 E0.02465
G1 X56.744 Y73.625 E0.91338
G1 X56.744 Y74.015 E0.01224
G1 X96.644 Y113.915 E1.76925
G1 X98.342 Y113.915 E0.05324
G1 X111.158 Y66.085 E1.55259
G1 X112.141 Y66.085 E0.03080
G1 X123.256 Y77.200 E0.49288
M204 S1250
G1 X123.256 Y77.404 F9000.000
M204 S800
G1 F1200.000
G1 X123.256 Y78.982 E0.04948
G1 X56.744 Y96.804 E2.15901
G1 X56.744 Y97.043 E0.00749
G1 X73.616 Y113.915 E0.74815
G1 X73.056 Y113.915 E0.01757
G1 X85.872 Y66.085 E1.55259
G1 X86.234 Y66.085 E0.01136
G1 X123.256 Y103.107 E1.64161
G1 X123.256 Y102.161 E0.02965
G1 X79.389 Y113.915 E1.42393
G1 X80.106 Y113.915 E0.02246
M204 S1250
; stop printing object v01_Body.stl id:0 copy 0
M106 S84.15
;LAYER_CHANGE
;Z:0.4
;HEIGHT:0.2
;BEFORE_LAYER_CHANGE
G92 E0.0
;0.4


G1 E-2.24000 F4200.000
;WIPE_START
G1 F7200.000
G1 X79.389 Y113.915 E-0.39703
G1 X80.287 Y113.675 E-0.51497
;WIPE_END
G1 E-0.04800 F4200.000
G1 Z0.400 F9000.000
;AFTER_LAYER_CHANGE
;0.4
M104 S210 ; set temperature
G1 Z0.600
G1 X126.322 Y62.799
G1 Z0.400
G1 E3.20000 F2400.000
;TYPE:Skirt
G1 X127.085 Y63.300 E0.02860
G1 X127.601 Y64.048 E0.02849
G1 X127.799 Y64.938 E0.02860
G1 X127.800 Y115.046 E1.57109
G1 X127.727 Y115.584 E0.01704
G1 X127.534 Y116.092 E0.01704
G1 X127.233 Y116.541 E0.01692
G1 X126.836 Y116.911 E0.01704
G1 X126.173 Y117.256 E0.02343
G1 X125.439 Y117.377 E0.02331
G1 X54.562 Y117.377 E2.22232
G1 X54.015 Y117.310 E0.01728
G1 X53.498 Y117.118 E0.01728
G1 X53.042 Y116.815 E0.01716
G1 X52.666 Y116.413 E0.01728
G1 X52.322 Y115.753 E0.02331
G1 X52.200 Y115.020 E0.02331
G1 X52.200 Y64.977 E1.56906
G1 X52.268 Y64.434 E0.01716
G1 X52.461 Y63.918 E0.01728
G1 X52.764 Y63.462 E0.01716
G1 X53.164 Y63.089 E0.01716
G1 X53.827 Y62.744 E0.02343
G1 X54.561 Y62.623 E0.02331
G1 X125.427 Y62.623 E2.22196
G1 X126.263 Y62.788 E0.02672
; printing object v01_Body.stl id:0 copy 0
G1 E-2.24000 F4200.000
;WIPE_START
G1 F7200.000
G1 X127.085 Y63.300 E-0.53650
G1 X127.470 Y63.858 E-0.37550
;WIPE_END
G1 E-0.04800 F4200.000
G1 Z0.600 F9000.000
G1 X124.362 Y65.632
G1 Z0.400
G1 E3.20000 F2400.000
M204 S800
;TYPE:Perimeter
;WIDTH:0.45
G1 X124.362 Y114.368 E1.64965
G1 X55.638 Y114.368 E2.32623
G1 X55.638 Y65.632 E1.64965
G1 X124.302 Y65.632 E2.32420
M204 S1250
G1 X124.302 Y65.225 F9000.000
M204 S800
