; generated by PrusaSlicer 2.3.3+x64 on 2021-09-09 at 03:05:23 UTC


;
;

;
;
; 

; external perimeters extrusion width = 0.45mm
; perimeters extrusion width = 0.45mm
; infill extrusion width = 0.45mm
; solid infill extrusion width = 0.45mm
; top infill extrusion width = 0.40mm
; first layer extrusion width = 0.42mm

; external perimeters extrusion width = 0.45mm
; perimeters extrusion width = 0.45mm
; infill extrusion width = 0.45mm
; solid infill extrusion width = 0.45mm
; top infill extrusion width = 0.40mm
; first layer extrusion width = 0.42mm

M73 P0 R21
M201 X1250 Y1250 Z400 E5000 ; sets maximum accelerations, mm/sec^2
M203 X180 Y180 Z12 E80 ; sets maximum feedrates, mm/sec
M204 P1250 R1250 T1250 ; sets acceleration (P, T) and retract acceleration (R), mm/sec^2
M205 X8.00 Y8.00 Z2.00 E10.00 ; sets the jerk limits, mm/sec
M205 S0 T0 ; sets the minimum extruding and travel feed rate, mm/sec
M107
;TYPE:Custom
G90 ; use absolute coordinates
M83 ; extruder relative mode
M104 S170 ; set extruder temp for bed leveling
M140 S60 ; set bed temp
M109 R170 ; wait for bed leveling temp
M190 S60 ; wait for bed temp
G28 ; home all without mesh bed level
G29 ; mesh bed leveling 
M104 S215 ; set extruder temp
G92 E0.0
G1 Y-2.0 X179 F2400
G1 Z3 F720
M109 S215 ; wait for extruder temp

; intro line
G1 X170 F1000
G1 Z0.2 F720
G1 X110.0 E8.0 F900
G1 X40.0 E10.0 F700
G92 E0.0

M221 S95 ; set flow
G21 ; set units to millimeters
G90 ; use absolute coordinates
M83 ; use relative distances for extrusion
M900 K0.2 ; Filament gcode LA 1.5
; ; Filament gcode LA 1.0
;LAYER_CHANGE
;Z:0.2
;HEIGHT:0.2
;BEFORE_LAYER_CHANGE
G92 E0.0
;0.2


M73 P1 R21
G1 E-3.20000 F4200.000
G1 Z0.200 F9000.000
;AFTER_LAYER_CHANGE
;0.2
G1 Z0.400
G1 X52.814 Y65.297
G1 Z0.200
G1 E3.20000 F2400.000
M204 S800
;TYPE:Skirt
;WIDTH:0.42
G1 F1200.000
G1 X53.618 Y64.811 E0.02947
G1 X54.537 Y64.433 E0.03114
G1 X55.499 Y64.202 E0.03102
G1 X56.462 Y64.123 E0.03030
G1 X123.504 Y64.123 E2.10205
M73 P1 R20
G1 X124.535 Y64.208 E0.03245
G1 X125.642 Y64.498 E0.03588
G1 X126.398 Y64.820 E0.02577
G1 X127.116 Y65.251 E0.02625
G1 X127.988 Y65.969 E0.03541
G1 X128.675 Y66.773 E0.03316
G1 X129.247 Y67.743 E0.03529
G1 X129.615 Y68.705 E0.03231
G1 X129.799 Y69.502 E0.02565
G1 X129.871 Y70.329 E0.02601
G1 X129.873 Y109.645 E1.23272
G1 X129.799 Y110.498 E0.02684
G1 X129.607 Y111.324 E0.02660
G1 X129.163 Y112.432 E0.03743
G1 X128.670 Y113.233 E0.02947
G1 X128.121 Y113.890 E0.02684
G1 X127.186 Y114.703 E0.03886
G1 X126.382 Y115.189 E0.02947
G1 X125.463 Y115.567 E0.03114
G1 X124.501 Y115.798 E0.03102
G1 X123.538 Y115.877 E0.03030
G1 X56.450 Y115.877 E2.10349
M73 P2 R20
G1 X55.521 Y115.801 E0.02923
G1 X54.698 Y115.613 E0.02648
G1 X53.585 Y115.172 E0.03755
G1 X52.770 Y114.673 E0.02995
G1 X52.113 Y114.124 E0.02684
G1 X51.297 Y113.186 E0.03897
G1 X50.811 Y112.382 E0.02947
G1 X50.434 Y111.467 E0.03102
G1 X50.203 Y110.509 E0.03090
G1 X50.124 Y109.565 E0.02971
G1 X50.124 Y70.424 E1.22724
G1 X50.200 Y69.514 E0.02863
G1 X50.389 Y68.691 E0.02648
G1 X50.830 Y67.581 E0.03743
G1 X51.327 Y66.770 E0.02983
G1 X51.876 Y66.113 E0.02684
G1 X52.769 Y65.336 E0.03709
M204 S1250
; printing object v01_Lid.stl id:0 copy 0
G1 E-2.24000 F4200.000
;WIPE_START
G1 F7200.000
G1 X53.618 Y64.811 E-0.55363
G1 X54.216 Y64.565 E-0.35837
;WIPE_END
G1 E-0.04800 F4200.000
G1 Z0.400 F9000.000
G1 X55.058 Y68.515
G1 Z0.200
G1 E3.20000 F2400.000
M204 S800
;TYPE:Perimeter
G1 F1200.000
G1 X55.386 Y68.313 E0.01207
G1 X55.742 Y68.166 E0.01207
G1 X56.116 Y68.076 E0.01207
G1 X56.561 Y68.041 E0.01398
G1 X123.473 Y68.044 E2.09800
G1 X123.884 Y68.076 E0.01291
G1 X124.258 Y68.166 E0.01207
G1 X124.614 Y68.313 E0.01207
G1 X124.942 Y68.515 E0.01207
G1 X125.235 Y68.765 E0.01207
G1 X125.485 Y69.058 E0.01207
G1 X125.687 Y69.386 E0.01207
G1 X125.834 Y69.742 E0.01207
G1 X125.924 Y70.116 E0.01207
G1 X125.959 Y70.561 E0.01398
G1 X125.959 Y109.439 E1.21902
G1 X125.924 Y109.884 E0.01398
G1 X125.834 Y110.258 E0.01207
G1 X125.687 Y110.614 E0.01207
G1 X125.485 Y110.942 E0.01207
G1 X125.235 Y111.235 E0.01207
G1 X124.942 Y111.485 E0.01207
G1 X124.614 Y111.687 E0.01207
G1 X124.258 Y111.834 E0.01207
G1 X123.884 Y111.924 E0.01207
G1 X123.439 Y111.959 E0.01398
G1 X56.561 Y111.959 E2.09694
M73 P3 R20
G1 X56.116 Y111.924 E0.01398
G1 X55.742 Y111.834 E0.01207
G1 X55.390 Y111.688 E0.01193
G1 X55.041 Y111.471 E0.01288
G1 X54.765 Y111.235 E0.01139
G1 X54.515 Y110.942 E0.01207
G1 X54.313 Y110.614 E0.01207
G1 X54.166 Y110.258 E0.01207
G1 X54.076 Y109.884 E0.01207
G1 X54.041 Y109.439 E0.01398
G1 X54.041 Y70.561 E1.21902
G1 X54.076 Y70.116 E0.01398
G1 X54.166 Y69.742 E0.01207
G1 X54.313 Y69.386 E0.01207
G1 X54.515 Y69.058 E0.01207
G1 X54.765 Y68.765 E0.01207
G1 X55.012 Y68.554 E0.01019
M204 S1250
G1 X54.767 Y68.267 F9000.000
M204 S800
G1 F1200.000
G1 X55.214 Y67.976 E0.01672
G1 X55.625 Y67.806 E0.01393
G1 X56.057 Y67.703 E0.01393
G1 X56.546 Y67.664 E0.01537
G1 X123.488 Y67.667 E2.09893
G1 X123.943 Y67.703 E0.01431
G1 X124.375 Y67.806 E0.01393
G1 X124.786 Y67.976 E0.01393
G1 X125.165 Y68.209 E0.01393
G1 X125.503 Y68.497 E0.01393
G1 X125.791 Y68.835 E0.01393
G1 X126.024 Y69.214 E0.01393
G1 X126.194 Y69.625 E0.01393
G1 X126.297 Y70.057 E0.01393
G1 X126.336 Y70.546 E0.01537
G1 X126.336 Y109.454 E1.21995
G1 X126.297 Y109.943 E0.01537
G1 X126.194 Y110.375 E0.01393
G1 X126.024 Y110.786 E0.01393
G1 X125.791 Y111.165 E0.01393
G1 X125.503 Y111.503 E0.01393
G1 X125.165 Y111.791 E0.01393
G1 X124.786 Y112.024 E0.01393
G1 X124.375 Y112.194 E0.01393
G1 X123.943 Y112.297 E0.01393
G1 X123.454 Y112.336 E0.01537
G1 X56.546 Y112.336 E2.09787
M73 P4 R20
G1 X56.057 Y112.297 E0.01537
G1 X55.625 Y112.194 E0.01393
G1 X55.217 Y112.025 E0.01383
G1 X54.818 Y111.776 E0.01474
G1 X54.497 Y111.503 E0.01322
G1 X54.209 Y111.165 E0.01393
G1 X53.976 Y110.786 E0.01393
G1 X53.806 Y110.375 E0.01393
G1 X53.703 Y109.943 E0.01393
G1 X53.664 Y109.454 E0.01537
G1 X53.664 Y70.546 E1.21995
G1 X53.703 Y70.057 E0.01537
G1 X53.806 Y69.625 E0.01393
G1 X53.976 Y69.214 E0.01393
G1 X54.209 Y68.835 E0.01393
G1 X54.497 Y68.497 E0.01393
G1 X54.721 Y68.306 E0.00924
M204 S1250
G1 X54.613 Y67.903 F9000.000
M204 S800
G1 F1200.000
G1 X55.042 Y67.639 E0.01580
G1 X55.508 Y67.447 E0.01580
G1 X55.998 Y67.329 E0.01580
G1 X56.531 Y67.287 E0.01677
G1 X123.503 Y67.290 E2.09986
G1 X124.002 Y67.329 E0.01570
G1 X124.492 Y67.447 E0.01580
G1 X124.958 Y67.639 E0.01580
G1 X125.387 Y67.903 E0.01580
G1 X125.770 Y68.230 E0.01580
G1 X126.097 Y68.613 E0.01580
G1 X126.361 Y69.042 E0.01580
G1 X126.553 Y69.508 E0.01580
G1 X126.671 Y69.998 E0.01580
G1 X126.713 Y70.531 E0.01677
G1 X126.713 Y109.469 E1.22088
G1 X126.671 Y110.002 E0.01677
G1 X126.553 Y110.492 E0.01580
G1 X126.361 Y110.958 E0.01580
G1 X126.097 Y111.387 E0.01580
G1 X125.770 Y111.770 E0.01580
G1 X125.387 Y112.097 E0.01580
G1 X124.958 Y112.361 E0.01580
G1 X124.492 Y112.553 E0.01580
G1 X124.002 Y112.671 E0.01580
G1 X123.469 Y112.713 E0.01677
G1 X56.531 Y112.713 E2.09880
G1 X55.998 Y112.671 E0.01677
G1 X55.508 Y112.553 E0.01580
G1 X55.044 Y112.361 E0.01574
G1 X54.595 Y112.082 E0.01660
G1 X54.230 Y111.770 E0.01504
G1 X53.903 Y111.387 E0.01580
G1 X53.639 Y110.958 E0.01580
G1 X53.447 Y110.492 E0.01580
G1 X53.329 Y110.002 E0.01580
G1 X53.287 Y109.469 E0.01677
G1 X53.287 Y70.531 E1.22088
M73 P5 R20
G1 X53.329 Y69.998 E0.01677
G1 X53.447 Y69.508 E0.01580
G1 X53.639 Y69.042 E0.01580
G1 X53.903 Y68.613 E0.01580
G1 X54.230 Y68.230 E0.01580
G1 X54.567 Y67.942 E0.01391
M204 S1250
G1 X54.322 Y67.655 F9000.000
M204 S800
;TYPE:External perimeter
G1 F1200.000
G1 X54.871 Y67.302 E0.02044
G1 X55.391 Y67.087 E0.01766
G1 X55.939 Y66.955 E0.01766
G1 X56.516 Y66.910 E0.01816
G1 X123.518 Y66.913 E2.10079
G1 X124.061 Y66.955 E0.01710
G1 X124.609 Y67.087 E0.01766
G1 X125.129 Y67.302 E0.01766
G1 X125.609 Y67.597 E0.01766
G1 X126.038 Y67.962 E0.01766
G1 X126.403 Y68.391 E0.01766
G1 X126.698 Y68.871 E0.01766
G1 X126.913 Y69.391 E0.01766
G1 X127.045 Y69.939 E0.01766
G1 X127.090 Y70.516 E0.01816
G1 X127.090 Y109.484 E1.22181
G1 X127.045 Y110.061 E0.01816
G1 X126.913 Y110.609 E0.01766
G1 X126.698 Y111.129 E0.01766
G1 X126.403 Y111.609 E0.01766
G1 X126.038 Y112.038 E0.01766
G1 X125.609 Y112.403 E0.01766
G1 X125.129 Y112.698 E0.01766
G1 X124.609 Y112.913 E0.01766
G1 X124.061 Y113.045 E0.01766
G1 X123.484 Y113.090 E0.01816
G1 X56.516 Y113.090 E2.09973
G1 X55.939 Y113.045 E0.01816
G1 X55.391 Y112.913 E0.01766
G1 X54.871 Y112.698 E0.01764
G1 X54.371 Y112.387 E0.01847
G1 X53.962 Y112.038 E0.01686
G1 X53.597 Y111.609 E0.01766
G1 X53.302 Y111.129 E0.01766
G1 X53.087 Y110.609 E0.01766
G1 X52.955 Y110.061 E0.01766
G1 X52.910 Y109.484 E0.01816
G1 X52.910 Y70.516 E1.22181
M73 P6 R20
G1 X52.955 Y69.939 E0.01816
G1 X53.087 Y69.391 E0.01766
G1 X53.302 Y68.871 E0.01766
G1 X53.597 Y68.391 E0.01766
G1 X53.962 Y67.962 E0.01766
G1 X54.277 Y67.694 E0.01296
M204 S1250
G1 X54.690 Y67.811 F9000.000
G1 E-2.24000 F4200.000
;WIPE_START
G1 F7200.000
G1 X54.871 Y67.302 E-0.39421
G1 X55.391 Y67.087 E-0.31207
G1 X55.752 Y67.000 E-0.20572
;WIPE_END
G1 E-0.04800 F4200.000
G1 Z0.400 F9000.000
G1 X54.339 Y71.814
G1 Z0.200
G1 E3.20000 F2400.000
M204 S800
;TYPE:Internal infill
G1 F1200.000
G1 X54.339 Y74.269 E0.07699
G1 X76.467 Y68.340 E0.71827
G1 X75.750 Y68.340 E0.02246
M204 S1250
G1 E-2.24000 F4200.000
;WIPE_START
G1 F7200.000
G1 X76.467 Y68.340 E-0.39704
G1 X75.569 Y68.580 E-0.51496
;WIPE_END
G1 E-0.04800 F4200.000
G1 Z0.400 F9000.000
G1 X85.408 Y68.340
G1 Z0.200
G1 E3.20000 F2400.000
M204 S800
G1 F1200.000
G1 X83.161 Y68.340 E0.07045
G1 X71.553 Y111.661 E1.40621
M73 P6 R19
G1 X72.801 Y111.661 E0.03915
G1 X54.339 Y93.199 E0.81865
G1 X54.339 Y93.234 E0.00110
G1 X125.661 Y74.123 E2.31513
G1 X125.661 Y73.848 E0.00862
G1 X120.154 Y68.342 E0.24417
G1 X121.090 Y68.342 E0.02933
G1 X109.482 Y111.661 E1.40616
M73 P7 R19
G1 X111.457 Y111.661 E0.06193
M204 S1250
G1 X112.847 Y111.661 F9000.000
M204 S800
G1 F1200.000
G1 X115.327 Y111.661 E0.07775
G1 X125.661 Y108.892 E0.33546
G1 X125.661 Y108.390 E0.01573
G1 X85.611 Y68.340 E1.77588
G1 X86.321 Y68.340 E0.02227
G1 X74.714 Y111.661 E1.40621
G1 X76.916 Y111.661 E0.06904
M204 S1250
G1 X78.078 Y111.661 F9000.000
M204 S800
G1 F1200.000
G1 X79.938 Y111.661 E0.05831
G1 X125.661 Y99.409 E1.48419
M204 S1250
G1 E-2.24000 F4200.000
;WIPE_START
G1 F7200.000
G1 X124.071 Y99.835 E-0.91200
;WIPE_END
G1 E-0.04800 F4200.000
G1 Z0.400 F9000.000
G1 X125.661 Y102.255
G1 Z0.200
G1 E3.20000 F2400.000
M204 S800
G1 F1200.000
G1 X125.661 Y99.755 E0.07839
G1 X94.247 Y68.341 E1.39295
G1 X95.804 Y68.341 E0.04881
G1 X84.196 Y111.661 E1.40619
M73 P8 R19
G1 X85.755 Y111.661 E0.04887
G1 X54.339 Y80.245 E1.39302
G1 X54.339 Y77.745 E0.07839
M204 S1250
G1 E-2.24000 F4200.000
;WIPE_START
G1 F7200.000
G1 X54.339 Y79.391 E-0.91200
;WIPE_END
G1 E-0.04800 F4200.000
G1 Z0.400 F9000.000
G1 X54.339 Y80.591
G1 Z0.200
G1 E3.20000 F2400.000
M204 S800
G1 F1200.000
G1 X100.056 Y68.341 E1.48398
G1 X101.922 Y68.341 E0.05850
M204 S1250
G1 X103.086 Y68.341 F9000.000
M204 S800
G1 F1200.000
G1 X105.286 Y68.341 E0.06897
G1 X93.678 Y111.661 E1.40618
G1 X94.390 Y111.661 E0.02231
G1 X54.339 Y71.610 E1.77593
G1 X54.339 Y71.108 E0.01573
G1 X64.672 Y68.339 E0.33542
M73 P9 R19
G1 X67.153 Y68.339 E0.07779
M204 S1250
G1 X68.543 Y68.340 F9000.000
M204 S800
G1 F1200.000
G1 X70.518 Y68.340 E0.06191
G1 X58.910 Y111.661 E1.40623
G1 X59.848 Y111.661 E0.02943
G1 X54.339 Y106.152 E0.24429
G1 X54.339 Y105.877 E0.00862
G1 X125.661 Y86.766 E2.31513
G1 X125.661 Y86.801 E0.00110
G1 X107.201 Y68.341 E0.81856
G1 X108.447 Y68.341 E0.03907
G1 X96.839 Y111.661 E1.40618
G1 X94.594 Y111.661 E0.07041
M204 S1250
G1 E-2.24000 F4200.000
;WIPE_START
G1 F7200.000
G1 X96.239 Y111.661 E-0.91200
;WIPE_END
G1 E-0.04800 F4200.000
G1 Z0.400 F9000.000
G1 X104.247 Y111.661
G1 Z0.200
G1 E3.20000 F2400.000
M204 S800
G1 F1200.000
G1 X103.530 Y111.661 E0.02246
G1 X125.661 Y105.731 E0.71837
M73 P10 R19
G1 X125.661 Y108.186 E0.07699
M204 S1250
G1 E-2.24000 F4200.000
;WIPE_START
G1 F7200.000
G1 X125.661 Y106.541 E-0.91200
;WIPE_END
G1 E-0.04800 F4200.000
G1 Z0.400 F9000.000
G1 X125.661 Y84.170
G1 Z0.200
G1 E3.20000 F2400.000
M204 S800
G1 F1200.000
G1 X125.661 Y86.670 E0.07839
G1 X118.965 Y111.661 E0.81120
G1 X120.296 Y111.661 E0.04175
G1 X76.975 Y68.340 E1.92093
G1 X76.839 Y68.340 E0.00427
G1 X65.231 Y111.661 E1.40622
G1 X64.166 Y111.661 E0.03340
G1 X54.339 Y101.834 E0.43574
G1 X54.339 Y102.716 E0.02766
G1 X125.661 Y83.605 E2.31513
G1 X125.661 Y82.484 E0.03517
G1 X111.519 Y68.341 E0.62710
M73 P11 R19
G1 X111.607 Y68.341 E0.00279
G1 X100.000 Y111.661 E1.40617
M73 P11 R18
G1 X98.708 Y111.661 E0.04052
G1 X55.596 Y68.549 E1.91166
G1 X55.834 Y68.450 E0.00809
G1 X56.163 Y68.371 E0.01060
G1 X56.572 Y68.339 E0.01288
G1 X57.874 Y68.339 E0.04083
G1 X54.339 Y81.533 E0.42829
G1 X54.339 Y83.548 E0.06316
M204 S1250
G1 X54.339 Y84.767 F9000.000
M204 S800
G1 F1200.000
G1 X54.339 Y86.912 E0.06727
G1 X123.603 Y68.353 E2.24834
G1 X123.837 Y68.371 E0.00736
G1 X124.216 Y68.471 E0.01228
G1 X112.643 Y111.661 E1.40197
M73 P12 R18
G1 X111.661 Y111.661 E0.03080
G1 X68.340 Y68.340 E1.92094
G1 X67.357 Y68.339 E0.03081
G1 X55.784 Y111.529 E1.40195
G1 X56.163 Y111.629 E0.01228
G1 X56.397 Y111.647 E0.00736
G1 X125.661 Y93.088 E2.24834
G1 X125.661 Y95.233 E0.06727
M204 S1250
G1 X125.661 Y96.452 F9000.000
M204 S800
G1 F1200.000
G1 X125.661 Y98.467 E0.06316
G1 X122.126 Y111.661 E0.42829
G1 X123.428 Y111.661 E0.04083
G1 X123.837 Y111.629 E0.01288
G1 X124.166 Y111.550 E0.01060
G1 X124.404 Y111.451 E0.00809
G1 X81.293 Y68.340 E1.91162
M73 P13 R18
G1 X80.000 Y68.340 E0.04055
G1 X68.392 Y111.661 E1.40621
G1 X68.484 Y111.661 E0.00287
G1 X54.339 Y97.516 E0.62720
G1 X54.339 Y96.395 E0.03517
G1 X125.661 Y77.284 E2.31513
G1 X125.661 Y78.166 E0.02766
G1 X115.836 Y68.341 E0.43564
G1 X114.768 Y68.341 E0.03349
G1 X103.161 Y111.661 E1.40617
G1 X103.025 Y111.661 E0.00424
G1 X59.704 Y68.339 E1.92096
M73 P14 R18
G1 X61.035 Y68.339 E0.04175
G1 X54.339 Y93.330 E0.81120
G1 X54.339 Y95.830 E0.07839
M204 S1250
G1 E-2.24000 F4200.000
;WIPE_START
G1 F7200.000
G1 X54.339 Y94.184 E-0.91200
;WIPE_END
G1 E-0.04800 F4200.000
G1 Z0.400 F9000.000
G1 X65.642 Y111.661
G1 Z0.200
G1 E3.20000 F2400.000
M204 S800
G1 F1200.000
G1 X68.142 Y111.661 E0.07839
G1 X125.661 Y96.249 E1.86710
G1 X125.661 Y95.437 E0.02545
G1 X98.565 Y68.341 E1.20149
G1 X96.065 Y68.341 E0.07839
M204 S1250
G1 E-2.24000 F4200.000
;WIPE_START
G1 F7200.000
G1 X97.711 Y68.341 E-0.91200
;WIPE_END
G1 E-0.04800 F4200.000
G1 Z0.400 F9000.000
G1 X98.964 Y68.341
G1 Z0.200
G1 E3.20000 F2400.000
M204 S800
G1 F1200.000
G1 X87.357 Y111.661 E1.40619
G1 X89.857 Y111.661 E0.07839
M204 S1250
G1 X90.721 Y111.661 F9000.000
M204 S800
G1 F1200.000
G1 X91.734 Y111.661 E0.03176
G1 X125.661 Y102.570 E1.10128
M73 P15 R18
G1 X125.661 Y104.072 E0.04710
G1 X89.929 Y68.340 E1.58441
G1 X89.482 Y68.340 E0.01401
G1 X77.874 Y111.661 E1.40620
G1 X77.119 Y111.661 E0.02368
G1 X54.339 Y88.881 E1.01011
G1 X54.339 Y90.073 E0.03738
G1 X125.661 Y70.962 E2.31513
M73 P15 R17
G1 X125.661 Y70.572 E0.01223
G1 X125.629 Y70.163 E0.01288
G1 X125.550 Y69.834 E0.01060
G1 X125.420 Y69.522 E0.01060
G1 X125.244 Y69.233 E0.01060
G1 X125.024 Y68.976 E0.01060
G1 X124.760 Y68.752 E0.01086
M204 S1250
G1 E-2.24000 F4200.000
;WIPE_START
G1 F7200.000
G1 X125.024 Y68.976 E-0.19196
G1 X125.244 Y69.233 E-0.18742
G1 X125.420 Y69.522 E-0.18742
G1 X125.550 Y69.834 E-0.18742
G1 X125.616 Y70.111 E-0.15779
;WIPE_END
G1 E-0.04800 F4200.000
G1 Z0.400 F9000.000
G1 X119.951 Y68.342
G1 Z0.200
G1 E3.20000 F2400.000
M204 S800
G1 F1200.000
G1 X117.929 Y68.341 E0.06339
G1 X106.322 Y111.661 E1.40617
M73 P16 R17
G1 X107.343 Y111.661 E0.03203
G1 X64.022 Y68.339 E1.92095
G1 X64.196 Y68.339 E0.00547
G1 X54.339 Y105.126 E1.19411
G1 X54.339 Y105.673 E0.01716
M204 S1250
G1 E-2.24000 F4200.000
;WIPE_START
G1 F7200.000
G1 X54.339 Y105.126 E-0.30338
G1 X54.623 Y104.065 E-0.60862
;WIPE_END
G1 E-0.04800 F4200.000
G1 Z0.400 F9000.000
G1 X54.339 Y101.631
G1 Z0.200
G1 E3.20000 F2400.000
M204 S800
G1 F1200.000
G1 X54.339 Y99.555 E0.06507
G1 X125.661 Y80.445 E2.31513
G1 X125.661 Y78.369 E0.06507
